assets/img/icons/user_thinking.svg

<svg fill="none" height="64" viewBox="0 0 64 64" width="64" xmlns="http://www.w3.org/2000/svg" xmlns:xlink="http://www.w3.org/1999/xlink"><mask id="a" fill="#fff"><path clip-rule="evenodd" d="m19 60v-11-21-1c0-.5523.4477-1 1-1h1 10 1 7 .7414c2.2804 0 4.272 1.5431 4.8415 3.7513l2.7724 10.7492c.3265 1.2659-.6293 2.4995-1.9366 2.4995h-1.4187v1c0 3.866-3.134 7-7 7h-3v9c0 1.1046-.8954 2-2 2h-11c-1.1046 0-2-.8954-2-2z" fill="#fff" fill-rule="evenodd"/></mask><path clip-rule="evenodd" d="m19 60v-11-21-1c0-.5523.4477-1 1-1h1 10 1 7 .7414c2.2804 0 4.272 1.5431 4.8415 3.7513l2.7724 10.7492c.3265 1.2659-.6293 2.4995-1.9366 2.4995h-1.4187v1c0 3.866-3.134 7-7 7h-3v9c0 1.1046-.8954 2-2 2h-11c-1.1046 0-2-.8954-2-2z" fill="#fff" fill-rule="evenodd"/><path d="m44.5829 29.7513 1.9366-.4995zm2.7724 10.7492 1.9367-.4995zm-3.3553 2.4995v-2h-2v2zm-10 8v-2h-2v2zm-17-2v11h4v-11zm4 0v-21h-4v21zm0-21v-1h-4v1zm0-1c0 .5523-.4477 1-1 1v-4c-1.6569 0-3 1.3431-3 3zm-1 1h1v-4h-1zm1 0h10v-4h-10zm10 0h1v-4h-1zm1 0h7v-4h-7zm7.7414-4h-.7414v4h.7414zm6.7781 5.2518c-.7973-3.0915-3.5855-5.2518-6.7781-5.2518v4c1.3682 0 2.5632.9258 2.9049 2.2508zm2.7725 10.7492-2.7725-10.7492-3.8732.999 2.7724 10.7492zm-3.8733 4.999c2.6146 0 4.5262-2.4673 3.8733-4.999l-3.8733.999zm-1.4187 0h1.4187v-4h-1.4187zm-2-2v1h4v-1zm0 1c0 2.7614-2.2386 5-5 5v4c4.9706 0 9-4.0294 9-9zm-5 5h-3v4h3zm-1 11v-9h-4v9zm-4 4c2.2091 0 4-1.7909 4-4h-4zm-11 0h11v-4h-11zm-4-4c0 2.2091 1.7909 4 4 4v-4z" fill="#000" mask="url(#a)"/><circle cx="36.5" cy="35.5" fill="#000" r="1.5"/><path d="m21 52h11v8h-11z" fill="#c4f0f5"/><g stroke="#000" stroke-width="2"><circle cx="51" cy="13" fill="#c4f0f5" r="4"/><circle cx="13" cy="13" fill="#c4f0f5" r="4"/><circle cx="32" cy="7" fill="#fff" r="4"/><circle cx="32" cy="19" fill="#fff" r="4"/><path d="m28 7h-5v13m13-1h6v-13"/></g></svg>

<svg width="64" height="64" viewBox="0 0 64 64" fill="none" xmlns="http://www.w3.org/2000/svg">
<mask id="path-1-inside-1_50_61" fill="white">
<path fill-rule="evenodd" clip-rule="evenodd" d="M19 60V49V28V27C19 26.4477 19.4477 26 20 26H21H31H32H39H39.7414C42.0218 26 44.0134 27.5431 44.5829 29.7513L47.3553 40.5005C47.6818 41.7664 46.726 43 45.4187 43H44V44C44 47.866 40.866 51 37 51H34V60C34 61.1046 33.1046 62 32 62H21C19.8954 62 19 61.1046 19 60Z"/>
</mask>
<path fill-rule="evenodd" clip-rule="evenodd" d="M19 60V49V28V27C19 26.4477 19.4477 26 20 26H21H31H32H39H39.7414C42.0218 26 44.0134 27.5431 44.5829 29.7513L47.3553 40.5005C47.6818 41.7664 46.726 43 45.4187 43H44V44C44 47.866 40.866 51 37 51H34V60C34 61.1046 33.1046 62 32 62H21C19.8954 62 19 61.1046 19 60Z" fill="white"/>
<path d="M44.5829 29.7513L46.5195 29.2518V29.2518L44.5829 29.7513ZM47.3553 40.5005L49.292 40.001V40.001L47.3553 40.5005ZM44 43V41H42V43H44ZM34 51V49H32V51H34ZM17 49V60H21V49H17ZM21 49V28H17V49H21ZM21 28V27H17V28H21ZM21 27C21 27.5523 20.5523 28 20 28V24C18.3431 24 17 25.3431 17 27H21ZM20 28H21V24H20V28ZM21 28H31V24H21V28ZM31 28H32V24H31V28ZM32 28H39V24H32V28ZM39.7414 24H39V28H39.7414V24ZM46.5195 29.2518C45.7222 26.1603 42.934 24 39.7414 24V28C41.1096 28 42.3046 28.9258 42.6463 30.2508L46.5195 29.2518ZM49.292 40.001L46.5195 29.2518L42.6463 30.2508L45.4187 41L49.292 40.001ZM45.4187 45C48.0333 45 49.9449 42.5327 49.292 40.001L45.4187 41V41V45ZM44 45H45.4187V41H44V45ZM42 43V44H46V43H42ZM42 44C42 46.7614 39.7614 49 37 49V53C41.9706 53 46 48.9706 46 44H42ZM37 49H34V53H37V49ZM36 60V51H32V60H36ZM32 64C34.2091 64 36 62.2091 36 60H32V64ZM21 64H32V60H21V64ZM17 60C17 62.2091 18.7909 64 21 64V60H21H17Z" fill="black" mask="url(#path-1-inside-1_50_61)"/>
<circle cx="36.5" cy="35.5" r="1.5" fill="black"/>
<rect x="21" y="52" width="11" height="8" fill="#C4F0F5"/>
<circle cx="51" cy="13" r="4" fill="#C4F0F5" stroke="black" stroke-width="2"/>
<circle cx="13" cy="13" r="4" fill="#C4F0F5" stroke="black" stroke-width="2"/>
<circle cx="32" cy="7" r="4" fill="white" stroke="black" stroke-width="2"/>
<circle cx="32" cy="19" r="4" fill="white" stroke="black" stroke-width="2"/>
<path d="M28 7H23V20M36 19H42V6" stroke="black" stroke-width="2"/>
</svg>
